Obsidian/actions/22s/hint.svg

<svg height="22" viewBox="0 0 22 22" width="22" xmlns="http://www.w3.org/2000/svg"><path d="m12.949219 1.6367188-1.875 1.875c-.612-.2185001-1.2467377-.3771063-1.8984378-.4414063-.3899-.0455-.7832812-.0664062-1.1757812-.0664063-1.5508.0151-3.1120906.3693657-4.4628906 1.1347657-.5384.3506-1.184675.8035656-1.671875 1.2597656-.7665.7505-1.4225344 1.6259687-1.8652344 2.6054687.65287 1.4399 1.7335687 2.6610628 3.0429688 3.5390628l-1.40625 1.40625 1.4140624 1.414062 1.8691407-1.86914c.6141.22 1.2506968.378359 1.9042969.443359 1.9273999.218 3.9446722-.114359 5.6386722-1.068359.538-.35 1.184875-.802766 1.671875-1.259766.766-.75 1.422234-1.6259687 1.865234-2.6054688-.654-1.4413999-1.735875-2.6647687-3.046875-3.5429687l1.410156-1.4101563zm-4.949219 3.3671874c.4529-.0099999.88595.1061813 1.28125.3007813l-3.96875 3.96875c-.3217-.6667-.4251813-1.43585-.1757812-2.15625.3692-1.2294 1.5757812-2.1285812 2.8632812-2.1132813zm2.695312 1.7148438c.196.397.313688.8325562.304688 1.2851562.052 1.7664-1.7090187 3.2909378-3.4492188 2.9609378-.2992999-.035-.5753906-.136672-.8378906-.263672l1.9316406-1.9335939a1 1 0 0 0 .0351563-.0332031l.0371094-.0351562a1 1 0 0 0 .0175781-.0195313z" fill="#bebebe" transform="translate(3 3)"/></svg>

<svg xmlns="http://www.w3.org/2000/svg" width="22" height="22" viewBox="0 0 22 22">
 <defs>
  <style id="current-color-scheme" type="text/css">
   .ColorScheme-Text { color:#bebebe; } .ColorScheme-Highlight { color:#4285f4; }
  </style>
 </defs>
 <path style="fill:currentColor" class="ColorScheme-Text" d="M 12.949219 1.6367188 L 11.074219 3.5117188 C 10.462219 3.2932187 9.8274813 3.1346125 9.1757812 3.0703125 C 8.7858812 3.0248125 8.3925 3.0039063 8 3.0039062 C 6.4492 3.0190062 4.8879094 3.3732719 3.5371094 4.1386719 C 2.9987094 4.4892719 2.3524344 4.9422375 1.8652344 5.3984375 C 1.0987344 6.1489375 0.4427 7.0244062 0 8.0039062 C 0.65287 9.4438062 1.7335687 10.664969 3.0429688 11.542969 L 1.6367188 12.949219 L 3.0507812 14.363281 L 4.9199219 12.494141 C 5.5340219 12.714141 6.1706187 12.8725 6.8242188 12.9375 C 8.7516187 13.1555 10.768891 12.823141 12.462891 11.869141 C 13.000891 11.519141 13.647766 11.066375 14.134766 10.609375 C 14.900766 9.859375 15.557 8.9834063 16 8.0039062 C 15.346 6.5625063 14.264125 5.3391375 12.953125 4.4609375 L 14.363281 3.0507812 L 12.949219 1.6367188 z M 8 5.0039062 C 8.4529 4.9939063 8.88595 5.1100875 9.28125 5.3046875 L 5.3125 9.2734375 C 4.9908 8.6067375 4.8873187 7.8375875 5.1367188 7.1171875 C 5.5059188 5.8877875 6.7125 4.9886063 8 5.0039062 z M 10.695312 6.71875 C 10.891312 7.11575 11.009 7.5513062 11 8.0039062 C 11.052 9.7703062 9.2909813 11.294844 7.5507812 10.964844 C 7.2514813 10.929844 6.9753906 10.828172 6.7128906 10.701172 L 8.6445312 8.7675781 A 1 1 0 0 0 8.6796875 8.734375 L 8.7167969 8.6992188 A 1 1 0 0 0 8.734375 8.6796875 L 10.695312 6.71875 z" transform="translate(3 3)"/>
</svg>
